Papirus/16x16/apps/GP6-icon.svg

<svg xmlns="http://www.w3.org/2000/svg" width="16" height="16" version="1">
 <path style="fill:#285b1f" d="M 13.184188,12.822399 C 9.7710199,16.702429 6.7961405,16.592713 4.7538394,14.8127 1.6885594,12.141252 -1.1473475,2.4360357 0.46963603,0.59830748 2.0863339,-1.239592 12.262867,1.5568861 14.444597,3.5909586 16.626672,5.6250881 16.776559,8.738083 13.183903,12.822456 Z"/>
 <path style="fill:#daff60" d="m 6.2587891,6.0000001 c -0.7076285,0 -1.2608358,0.198659 -1.6611328,0.595703 -0.3982755,0.395086 -0.5976562,0.9473891 -0.5976562,1.6562501 0,0.706903 0.1993807,1.25823 0.5976562,1.6552735 C 4.9979758,10.302334 5.5511831,10.5 6.2587891,10.5 c 0.323481,0 0.6280135,-0.04073 0.913086,-0.12207 0.285073,-0.08329 0.5915901,-0.205462 0.8281251,-0.366211 l 0,-2.0117188 -1.5000001,0 0,0.5 0.998047,0 0,1.296875 c -0.1354615,0.075534 -0.2881815,0.132148 -0.458008,0.1689455 -0.1698195,0.03486 -0.5131645,0.051757 -0.729492,0.051757 -0.5539515,0 -1.095015,-0.1480108 -1.3740236,-0.4443358 C 4.659536,9.2769167 4.5000001,8.8368572 4.5000001,8.2519532 c 0,-0.586841 0.1595364,-1.0288701 0.4365234,-1.3251951 0.2790086,-0.2963255 0.8200721,-0.444336 1.3740236,-0.444336 0.2809855,0 0.47381,0.0467 0.7285155,0.1396485 0.254706,0.092951 0.4843076,0.231073 0.7109376,0.415039 l 0,-0.625 C 7.5255937,6.2765361 7.2912936,6.1742141 7.0244141,6.1044921 6.7595781,6.0347701 6.5539696,6.0000001 6.2587891,6.0000001 Z m 2.7412111,0 0,4.4999999 0.5,0 0,-1.4999998 0.8828128,0 c 0.507437,-0.00455 0.965815,-0.1024445 1.224609,-0.321289 0.260815,-0.218844 0.390625,-0.692089 0.390625,-1.120117 0,-0.4241551 -0.12981,-0.9959996 -0.390625,-1.2148441 -0.258794,-0.2207805 -0.717152,-0.34375 -1.224609,-0.34375 z m 0.5,0.5009765 0.9257808,0 c 0.342267,-0.00909 0.606938,0.069053 0.793946,0.208008 C 11.406734,6.8479416 11.5,7.2927756 11.5,7.5478517 c 0,0.2569815 -0.09327,0.605185 -0.280273,0.7441405 -0.187008,0.1389555 -0.451499,0.208008 -0.793946,0.208008 l -0.9257808,0 z"/>
</svg>

<svg xmlns="http://www.w3.org/2000/svg" width="16" height="16" version="1">
 <path style="fill:#4f4f4f" d="M 13.184188,12.822399 C 9.7710199,16.702429 6.7961405,16.592713 4.7538394,14.8127 1.6885594,12.141252 -1.1473475,2.4360357 0.46963603,0.59830748 2.0863339,-1.239592 12.262867,1.5568861 14.444597,3.5909586 16.626672,5.6250881 16.776559,8.738083 13.183903,12.822456 Z"/>
 <path style="fill:#ffffff" d="m 6.2587891,6.0000001 c -0.7076285,0 -1.2608358,0.198659 -1.6611328,0.595703 -0.3982755,0.395086 -0.5976562,0.9473891 -0.5976562,1.6562501 0,0.706903 0.1993807,1.25823 0.5976562,1.6552735 C 4.9979758,10.302334 5.5511831,10.5 6.2587891,10.5 c 0.323481,0 0.6280135,-0.04073 0.913086,-0.12207 0.285073,-0.08329 0.5915901,-0.205462 0.8281251,-0.366211 V 8.0000002 H 6.5000001 v 0.5 h 0.998047 v 1.296875 c -0.1354615,0.075534 -0.2881815,0.132148 -0.458008,0.1689455 -0.1698195,0.03486 -0.5131645,0.051757 -0.729492,0.051757 -0.5539515,0 -1.095015,-0.1480111 -1.3740236,-0.4443361 C 4.659536,9.2769167 4.5000001,8.8368572 4.5000001,8.2519532 c 0,-0.586841 0.1595364,-1.0288701 0.4365234,-1.3251951 0.2790086,-0.2963255 0.8200721,-0.444336 1.3740236,-0.444336 0.2809855,0 0.47381,0.0467 0.7285155,0.1396485 0.254706,0.092951 0.4843076,0.231073 0.7109376,0.415039 v -0.625 C 7.5255937,6.2765361 7.2912936,6.1742141 7.0244141,6.1044921 6.7595781,6.0347701 6.5539696,6.0000001 6.2587891,6.0000001 Z"/>
 <path style="fill:#f14649" d="M 9 6 L 9 10.5 L 9.5 10.5 L 9.5 9 L 10.382812 9 C 10.890249 8.99545 11.348628 8.898532 11.607422 8.6796875 C 11.868237 8.4608435 11.998047 7.9866218 11.998047 7.5585938 C 11.998047 7.1344386 11.868237 6.5625945 11.607422 6.34375 C 11.348628 6.1229695 10.890269 6 10.382812 6 L 9 6 z M 9.5 6.5019531 L 10.425781 6.5019531 C 10.768048 6.4928631 11.033695 6.5700294 11.220703 6.7089844 C 11.40771 6.8479414 11.5 7.293752 11.5 7.5488281 C 11.5 7.8058096 11.407706 8.1540133 11.220703 8.2929688 C 11.033695 8.4319242 10.768228 8.5 10.425781 8.5 L 9.5 8.5 L 9.5 6.5019531 z"/>
</svg>
